lib/brands/icons/twitter.svg

<svg xmlns="http://www.w3.org/2000/svg" fill="none" aria-hidden="true" viewBox="0 0 48 48"><g id="twitter-Icon"><path id="Path" fill="#1DA1F2" d="M36.7107 17.4822C36.7311 17.7665 36.731 18.0508 36.731 18.335C36.731 27.0051 30.1321 36.995 18.0711 36.995C14.3553 36.995 10.9036 35.9188 8 34.0508C8.52794 34.1117 9.0355 34.132 9.58376 34.132C12.6497 34.132 15.4721 33.0965 17.7259 31.33C14.8427 31.2691 12.4264 29.3808 11.5939 26.7818C12 26.8426 12.4061 26.8833 12.8325 26.8833C13.4213 26.8833 14.0102 26.802 14.5584 26.6599C11.5533 26.0508 9.29944 23.4112 9.29944 20.2234V20.1422C10.1725 20.6295 11.1878 20.934 12.2639 20.9746C10.4974 19.7969 9.34007 17.7868 9.34007 15.5126C9.34007 14.2944 9.66488 13.1776 10.2334 12.203C13.4619 16.1827 18.3147 18.7817 23.7563 19.066C23.6548 18.5787 23.5939 18.0711 23.5939 17.5635C23.5939 13.9492 26.5178 11.0051 30.1523 11.0051C32.0406 11.0051 33.7462 11.7969 34.9442 13.0761C36.4264 12.7919 37.8477 12.2436 39.1066 11.4924C38.6192 13.0153 37.5837 14.2945 36.2234 15.1066C37.5432 14.9645 38.8224 14.599 40 14.0914C39.1067 15.3908 37.9899 16.5482 36.7107 17.4822Z"/></g></svg>

<svg xmlns="http://www.w3.org/2000/svg" fill="none" aria-hidden="true" viewBox="0 0 48 48"><path fill="#1DA1F2" d="M36.71 17.482c.021.285.021.569.021.853 0 8.67-6.599 18.66-18.66 18.66A18.533 18.533 0 0 1 8 34.051c.528.06 1.036.081 1.584.081 3.066 0 5.888-1.035 8.142-2.802a6.57 6.57 0 0 1-6.132-4.548c.406.06.812.101 1.239.101.588 0 1.177-.081 1.725-.223A6.56 6.56 0 0 1 9.3 20.223v-.08a6.606 6.606 0 0 0 2.965.832 6.554 6.554 0 0 1-2.924-5.462 6.51 6.51 0 0 1 .893-3.31 18.642 18.642 0 0 0 13.523 6.863 7.404 7.404 0 0 1-.162-1.502 6.555 6.555 0 0 1 6.558-6.559c1.889 0 3.594.792 4.792 2.071a12.911 12.911 0 0 0 4.163-1.584 6.54 6.54 0 0 1-2.884 3.615A13.147 13.147 0 0 0 40 14.09a14.098 14.098 0 0 1-3.29 3.391Z"/></svg>
